X:1
T:The Cloud and Fire
T:The Cloud and Fire
T:Charles Austin Miles
T:Charles Austin Miles, 1900
T:Public Domain Courtesy of the Cyber Hymnal™
T:Public Domain Courtesy of the Cyber Hymnal™
C:Charles Austin Miles
Z:Public Domain
Z:Courtesy of the Cyber Hymnal™
%%score ( 1 2 ) 3
L:1/8
Q:1/4=103
M:4/4
K:Eb
V:1 treble 
V:2 treble 
V:3 bass 
V:1
 E>[EF] | [EG]2 [Ec]>[EB] [Ec]2 [EG]2 | [DB]2 [DA]2 [DF]2 [DF]>[EG] | %3
w: 1.~As of|old when the hosts of|Is- ra- el Were com-|
w: 2.~To and|fro as a ship with-|out a sail, Not a|
w: 3.~All the|days of their wan- d’rings|they were fed, To the|
 [FA]2 [Ad]>[A^c] [Ad]2 [A=c]2 | [Gc]2 [GB]2 [EG]2 E>[EF] | [EG]2 [Ec]>[EB] [Ec]2 [EG]2 | %6
w: pelled in the wil- der-|ness to dwell, Trust- ing|they in their God to|
w: com- pass to guide them|thro’ the vale, But the|sign of their God was|
w: land of the prom- ise|they were led, By the|hand of the Lord in|
 [DB]2 [DF]2 [DF]2 [DB]>[DB] | [Fd]2 [FB]2 [Ec]2 [E=A]2 | [DB]6 ||"^Refrain" E>F | %10
w: lead the way To the|light of per- fect|day.||
w: ev- er near, Thus their|faint- ing hearts to|cheer.|So the|
w: guid- ance sure, They were|brought to Ca- naan’s|shore.||
 [B,EG]2 c>B [EGc]2 E2 | G6 ([B,E]2 [B,E]2) E>F | [B,EG]2 c>B [EGc]2 [EG]2 | A6 ([DF]2 [DF]2) F>G | %14
w: ||||
w: sign of the fire by|night, And * the sign|* of the cloud by|day, Hov- * ering o’er,|
w: ||||
 [DFA]2 d>^c [DFd]2 F>G | ([DFA]2 d>^c [DFd]2) F>G | [DFA]2 [FAd]2 [FAc]2 [DFA]2 | %17
w: |||
w: * * * * just be-|fore, * * * As they|jour- ney on their|
w: |||
 G6 ([B,E]2 [B,E]2) E>F | [EG]2 c>B [EGc]2 [B,E]2 | G6 ([B,E]2 [B,E]2) G>G | %20
w: |||
w: way, Shall * a guide|* and a lead- er|be, Till * the wil-|
w: |||
 [EGe]2 [FG=Bd]2 [EGc]2 [FGB]2 | c6 ([EG]2 [EG]2) d>d | [EGBe]2 [EGB]2 [EAd]2 c>c | %23
w: |||
w: der- ness be past.|For the * Lord our|God in His own good|
w: |||
 [EGB]2 [B,EG]2 [CF]2 [CE^Fc]2 | [B,EGB]2 G>E [B,DG]2 [B,DF]2 | [G,B,E]4 z2 |] %26
w: |||
w: time, Shall lead to|the light at last. *||
w: |||
V:2
 E3/2 x/ | x8 | x8 | x8 | x6 E3/2 x/ | x8 | x8 | x8 | x6 || x2 | x2 [EG]2 x/ E2 x3/2 | [B,E]2 x10 | %12
 x2 [EG]2 x4 | [DF]2 x10 | x2 [DF]2 x/ D2 x3/2 | x2 [DF]2 x/ D2 x3/2 | x8 | [B,E]2 x10 | %18
 x2 [EG]2 x4 | ([B,E]2 [B,E]2) x8 | x8 | ([EG]2 [FAB]2) x8 | x6 [EA]2 | x8 | x2 [B,E]2 x4 | x6 |] %26
V:3
 [E,G,]>[E,A,] | [E,B,]2 [E,G,]>[E,G,] [E,G,]2 [E,G,]2 | %2
 [B,,F,]2 [B,,B,]2 [B,,B,]2 [B,,B,]>[B,,B,] | [B,,B,]2 [B,,B,]>[B,,B,] [B,,B,]2 [B,,B,]2 | %4
 [E,B,]2 [E,B,]2 [E,B,]2 [E,G,]>[E,A,] | [E,B,]2 [E,G,]>[E,G,] [E,G,]2 [E,G,]2 | %6
 [B,,F,]2 [B,,B,]2 [B,,B,]2 [B,,F,]>[B,,F,] | [F,B,]2 [F,D]2 [F,=A,]2 [F,C]2 | %8
 ([B,,B,]2 [A,,A,]2 [G,,G,]2) || [F,,F,]2 | [E,,E,]2 [B,,,B,,]2 [E,,E,]2 [B,,,B,,]2 | %11
 ([E,,E,]2 [B,,,B,,]2 [E,,E,]2) [B,,,B,,]2 x4 | [E,,E,]2 [B,,,B,,]2 [E,,E,]2 [B,,,B,,]2 | %13
 ([F,,F,]2 [B,,,B,,]2 [F,,F,]2) [B,,,B,,]2 x4 | ([F,,F,]2 [B,,,B,,]2 [F,,F,]2) [B,,,B,,]2 | %15
 ([F,,F,]2 [B,,,B,,]2 [F,,F,]2) [B,,,B,,]2 | [F,,F,]2 [B,,,B,,]2 [F,,F,]2 [B,,,B,,]2 | %17
 ([E,,E,]2 [B,,,B,,]2 [G,,,G,,]2) z2 x4 | [E,,E,]2 [C,,B,,]2 [E,,E,]2 [B,,,B,,]2 | %19
 ([E,,E,]2 [B,,,B,,]2 [E,,E,]2) [E,,E,]2 x4 | [C,,D,]2 [D,,D,]2 [E,,E,]2 [G,,G,]2 | %21
 ([C,G,]2 [C,G,]2 [C,G,]2) [B,,B,]2 x4 | [E,,E,]2 [E,,E,]2 [A,,A,]2 [A,,A,]2 | %23
 [B,,B,]2 [B,,B,]2 [A,,A,]2 [=A,,^F,]2 | [B,,G,]2 [B,,G,]2 [B,,A,]2 [B,,A,]2 | %25
 ([E,,E,]2 [B,,,B,,]2 [E,,,E,,]2) |] %26

